static/logos/netlify-wordmark-color.svg

<svg width="100" height="27" viewBox="0 0 100 27" fill="none" xmlns="http://www.w3.org/2000/svg">
<g clip-path="url(#clip0_1_1869)">
<path fill-rule="evenodd" clip-rule="evenodd" d="M36.3153 8.29035L36.3992 9.78899C37.3559 8.6299 38.6119 8.0504 40.1666 8.0504C42.8608 8.0504 44.2321 9.59673 44.2799 12.6895V21.2585H41.375V12.8572C41.375 12.0342 41.1977 11.4254 40.8431 11.0292C40.4885 10.6337 39.9082 10.436 39.1029 10.436C37.9307 10.436 37.0572 10.9679 36.4844 12.0301V21.2585H33.5781V8.29035H36.3166H36.3153ZM52.9386 21.4986C51.0975 21.4986 49.6041 20.9176 48.4606 19.7551C47.3164 18.5927 46.7442 17.0443 46.7442 15.1106V14.7513C46.7442 13.4572 46.9931 12.3002 47.4916 11.2815C47.9894 10.2628 48.6897 9.46994 49.5905 8.90191C50.4913 8.33533 51.4957 8.05175 52.6045 8.05175C54.3658 8.05175 55.7276 8.61491 56.6877 9.74123C57.6492 10.8683 58.1292 12.4617 58.1292 14.5235V15.6983H49.6737C49.7623 16.7687 50.1183 17.6155 50.7443 18.2388C51.3702 18.862 52.1579 19.1735 53.1064 19.1735C54.4375 19.1735 55.5217 18.6349 56.3591 17.5556L57.9253 19.0542C57.4071 19.8288 56.7157 20.4301 55.851 20.8577C54.9857 21.2852 54.0154 21.4986 52.9393 21.4986H52.9386ZM52.5922 10.389C51.7944 10.389 51.1514 10.6685 50.6611 11.2276C50.1701 11.7867 49.8578 12.566 49.7221 13.5649H55.2591V13.3488C55.195 12.3738 54.9359 11.6374 54.4818 11.1376C54.0269 10.6385 53.3976 10.389 52.5922 10.389ZM64.0243 5.13899V8.29107H66.3087V10.4483H64.0243V17.6872C64.0243 18.1822 64.1225 18.5395 64.3175 18.7596C64.5125 18.9792 64.8616 19.089 65.3642 19.089C65.7064 19.088 66.0473 19.0478 66.3802 18.969V21.2224C65.7188 21.4065 65.0812 21.4978 64.4668 21.4978C62.235 21.4978 61.1187 20.2638 61.1187 17.7949V10.4476H58.9884V8.29035H61.1174V5.13831H64.0229L64.0243 5.13899ZM71.6185 21.2592H68.7123V2.85013H71.6185V21.2592ZM77.8729 21.2592H74.9667V8.29107H77.8729V21.2592ZM74.7874 4.92285C74.7874 4.47627 74.9285 4.10467 75.2115 3.80876C75.4952 3.51354 75.8996 3.36558 76.4253 3.36558C76.9517 3.36558 77.3581 3.51354 77.6459 3.80876C77.9323 4.10467 78.0755 4.47627 78.0755 4.92354C78.0755 5.36263 77.9323 5.72809 77.6459 6.0199C77.3581 6.31172 76.9517 6.45763 76.4253 6.45763C75.8996 6.45763 75.4952 6.31172 75.2115 6.0199C74.9285 5.72876 74.7874 5.36263 74.7874 4.92354V4.92285ZM82.0587 21.2592V10.4476H80.085V8.29035H82.0587V7.10399C82.0587 5.66536 82.4566 4.55536 83.254 3.77195C84.0515 2.98922 85.1671 2.59785 86.6017 2.59785C87.1129 2.59785 87.6552 2.66945 88.2293 2.81331L88.1575 5.09058C87.7907 5.02253 87.4183 4.99056 87.0451 4.99514C85.6575 4.99514 84.9638 5.70968 84.9638 7.14013V8.29035H87.5945V10.4476H84.9638V21.2585H82.0587V21.2592ZM94.2437 17.0885L96.8745 8.29107H99.9717L94.8306 23.2249C94.0411 25.4061 92.7014 26.497 90.8123 26.497C90.3896 26.497 89.9231 26.4246 89.4127 26.2808V24.0274L89.963 24.0636C90.6958 24.0636 91.2485 23.9299 91.6193 23.662C91.9893 23.3947 92.2827 22.9454 92.4981 22.314L92.9167 21.1992L88.3721 8.29107H91.5052L94.2437 17.0885Z" fill="#0E1E25"/>
<path d="M18.936 9.07926L18.9265 9.07512C18.921 9.07312 18.9155 9.07105 18.9108 9.06626C18.9029 9.05789 18.8971 9.04776 18.8939 9.03684C18.8905 9.02583 18.8898 9.01419 18.8916 9.00287L19.4187 5.78061L21.8907 8.25287L19.3199 9.34649C19.3128 9.34944 19.3051 9.35079 19.2974 9.35063H19.2872C19.2837 9.34856 19.2804 9.34585 19.2735 9.33899C19.1778 9.23253 19.0635 9.14449 18.936 9.07926ZM22.5214 8.88285L25.1644 11.5256C25.7134 12.0751 25.9882 12.3493 26.0884 12.667C26.1034 12.714 26.1157 12.7611 26.1253 12.8095L19.8088 10.1347C19.8054 10.1333 19.802 10.132 19.7986 10.1306C19.7734 10.1204 19.744 10.1088 19.744 10.0829C19.744 10.0569 19.774 10.0447 19.7993 10.0344L19.8074 10.0311L22.5214 8.88285ZM26.0175 13.6577C25.8811 13.914 25.6151 14.1799 25.1651 14.6306L22.1852 17.6095L18.3312 16.807L18.3107 16.8029C18.2766 16.7974 18.2404 16.7913 18.2404 16.7606C18.2258 16.6017 18.1786 16.4474 18.1018 16.3074C18.025 16.1675 17.9201 16.0449 17.7938 15.9472C17.7781 15.9315 17.7822 15.9069 17.787 15.8844C17.787 15.8811 17.787 15.8777 17.7884 15.875L18.5132 11.4254L18.5159 11.4104C18.52 11.3763 18.5262 11.3368 18.5569 11.3368C18.7122 11.3175 18.8621 11.2674 18.9979 11.1895C19.1337 11.1117 19.2527 11.0076 19.3478 10.8833C19.354 10.8766 19.358 10.8691 19.3663 10.8649C19.3881 10.8547 19.414 10.8649 19.4365 10.8745L26.0168 13.6577H26.0175ZM21.4999 18.2947L16.5998 23.1943L17.4385 18.0397L17.4399 18.0329C17.4406 18.0261 17.4419 18.0192 17.444 18.0131C17.4508 17.9967 17.4685 17.9899 17.4856 17.9831L17.4938 17.9797C17.6774 17.9014 17.8399 17.7805 17.9677 17.6272C17.984 17.6081 18.0038 17.5897 18.029 17.5863C18.0356 17.5852 18.0423 17.5852 18.0488 17.5863L21.4993 18.2954L21.4999 18.2947ZM15.5626 24.2313L15.0103 24.7836L8.9039 15.9595C8.90167 15.9562 8.89936 15.953 8.89704 15.9499C8.88748 15.937 8.87727 15.924 8.87934 15.909C8.87934 15.8981 8.88684 15.8886 8.89433 15.8804L8.90111 15.8715C8.91953 15.8443 8.93524 15.817 8.95231 15.7876L8.96594 15.7638L8.96794 15.7617C8.97751 15.7454 8.98636 15.7297 9.00279 15.7208C9.01706 15.714 9.03684 15.7167 9.05255 15.7202L15.8176 17.1151C15.8366 17.1181 15.8544 17.1258 15.8695 17.1376C15.8783 17.1465 15.8804 17.1561 15.8825 17.167C15.9297 17.3455 16.0175 17.5107 16.1391 17.6497C16.2607 17.7887 16.4128 17.8976 16.5834 17.9681C16.6025 17.9777 16.5943 17.9988 16.5855 18.0213C16.581 18.0312 16.5776 18.0415 16.5753 18.052C16.49 18.5702 15.759 23.0279 15.5626 24.2313ZM14.4088 25.3842C14.0017 25.7872 13.7617 26.0006 13.4903 26.0865C13.2227 26.1711 12.9356 26.1711 12.6679 26.0865C12.3502 25.9856 12.0754 25.7115 11.5265 25.162L5.39413 19.0304L6.99592 16.5465C7.00342 16.5343 7.01092 16.5234 7.02319 16.5145C7.04024 16.5022 7.06479 16.5077 7.08525 16.5145C7.4529 16.6254 7.84764 16.6054 8.20223 16.4579C8.22065 16.451 8.23899 16.4463 8.25334 16.4592C8.26052 16.4658 8.2669 16.4731 8.2724 16.4811L14.4088 25.3849V25.3842ZM4.80293 18.4392L3.39618 17.0327L6.17423 15.8477C6.18133 15.8446 6.18898 15.8429 6.19673 15.8429C6.21992 15.8429 6.23355 15.8661 6.24583 15.8872C6.27375 15.9301 6.30332 15.972 6.33448 16.0127L6.34334 16.0236C6.35153 16.0352 6.34607 16.0467 6.33789 16.0577L4.80362 18.4392H4.80293ZM2.7736 16.4101L0.993839 14.6306C0.691076 14.3279 0.471504 14.1084 0.318758 13.9195L5.73031 15.0418C5.73711 15.043 5.74393 15.0442 5.75077 15.0451C5.78418 15.0506 5.82101 15.0568 5.82101 15.0881C5.82101 15.1222 5.78078 15.1379 5.74668 15.1509L5.73099 15.1577L2.7736 16.4101ZM0.0078125 13.0045C0.0139797 12.8899 0.0345998 12.7765 0.0691835 12.667C0.170105 12.3493 0.444228 12.0751 0.993839 11.5256L3.27138 9.24832C4.32003 10.7701 5.37152 12.2899 6.42585 13.8077C6.44426 13.8322 6.46472 13.8595 6.44358 13.8799C6.34402 13.9897 6.24447 14.1097 6.17423 14.2399C6.16661 14.2567 6.15488 14.2712 6.14014 14.2822C6.13127 14.2876 6.12173 14.2856 6.11149 14.2836H6.11013L0.0078125 13.0038V13.0045ZM3.881 8.63875L6.94205 5.57674C7.23049 5.70288 8.27854 6.14538 9.21483 6.54083C9.924 6.84083 10.5704 7.11356 10.7737 7.2022C10.7941 7.21038 10.8125 7.21856 10.8214 7.23902C10.8269 7.25129 10.8241 7.26697 10.8214 7.27992C10.7729 7.50095 10.7801 7.73056 10.8423 7.94811C10.9046 8.16571 11.0199 8.36435 11.178 8.52631C11.1985 8.54673 11.178 8.57607 11.1603 8.60127L11.1507 8.61563L8.0413 13.4313C8.03309 13.4449 8.02559 13.4565 8.01196 13.4654C7.99561 13.4756 7.9724 13.4708 7.9533 13.4661C7.83236 13.4344 7.70804 13.4175 7.58303 13.4156C7.4712 13.4156 7.34983 13.436 7.22708 13.4585H7.2264C7.21276 13.4606 7.20049 13.4633 7.18958 13.4552C7.17753 13.4453 7.16716 13.4336 7.1589 13.4204L3.88032 8.63875H3.881ZM7.56189 4.95834L11.5265 0.994247C12.0754 0.445383 12.3502 0.17061 12.6679 0.0703827C12.9356 -0.0142242 13.2227 -0.0142242 13.4903 0.0703827C13.8081 0.17061 14.0829 0.445383 14.6318 0.994247L15.4911 1.85334L12.6714 6.2197C12.6644 6.23241 12.6549 6.24355 12.6434 6.25243C12.6264 6.26402 12.6025 6.25925 12.5821 6.25243C12.3597 6.18497 12.1243 6.17269 11.8962 6.21665C11.6681 6.2606 11.4541 6.35947 11.2728 6.5047C11.2544 6.52379 11.2271 6.51288 11.2039 6.50265C10.8357 6.34243 7.97172 5.1322 7.56189 4.95834ZM16.0897 2.45197L18.6932 5.05516L18.0659 8.94019V8.9504C18.0653 8.95925 18.0635 8.96794 18.0604 8.97631C18.0536 8.98995 18.0399 8.99266 18.0263 8.99673C17.8922 9.0374 17.7659 9.10032 17.6526 9.18285C17.6478 9.18636 17.6432 9.19027 17.639 9.19449C17.6315 9.20263 17.624 9.21012 17.6117 9.21148C17.6017 9.2118 17.5918 9.2102 17.5824 9.20677L13.6151 7.52129L13.6077 7.51788C13.5824 7.50765 13.5524 7.49538 13.5524 7.46947C13.5291 7.24842 13.4569 7.03532 13.341 6.84561C13.3219 6.81425 13.3008 6.78152 13.3171 6.74947L16.0897 2.45197ZM13.4085 8.31969L17.1276 9.89473C17.148 9.90422 17.1706 9.91307 17.1794 9.93421C17.1829 9.94697 17.1829 9.96036 17.1794 9.97312C17.1685 10.0277 17.1589 10.0897 17.1589 10.1524V10.2568C17.1589 10.2827 17.1324 10.2935 17.1078 10.3038L17.1003 10.3065C16.5112 10.5581 8.82886 13.8336 8.8173 13.8336C8.80566 13.8336 8.79338 13.8336 8.78181 13.822C8.76132 13.8015 8.78181 13.7729 8.80023 13.747C8.8035 13.7425 8.80669 13.738 8.8098 13.7333L11.866 9.00151L11.8715 8.9933C11.8892 8.96467 11.9097 8.93269 11.9424 8.93269L11.9731 8.9374C12.0427 8.94697 12.1041 8.95582 12.1661 8.95582C12.6297 8.95582 13.0594 8.73014 13.3185 8.34425C13.3246 8.33397 13.3325 8.32472 13.3417 8.31698C13.3601 8.30335 13.3874 8.31012 13.4085 8.31969ZM9.14936 14.5822L17.5231 11.0115C17.5231 11.0115 17.5353 11.0116 17.547 11.0231C17.5927 11.0688 17.6315 11.0994 17.669 11.1281L17.6874 11.1397C17.7045 11.1493 17.7215 11.1601 17.7229 11.1779C17.7229 11.1847 17.7229 11.1888 17.7215 11.1949L17.0041 15.6009L17.0014 15.6186C16.9966 15.6526 16.9919 15.6915 16.9598 15.6915C16.7686 15.7045 16.5833 15.7638 16.4202 15.8644C16.2571 15.965 16.121 16.1039 16.0236 16.2691L16.0202 16.2745C16.0106 16.2902 16.0017 16.3052 15.9861 16.3133C15.9718 16.3202 15.9533 16.3175 15.9384 16.314L9.26052 14.9368C9.25366 14.9354 9.15685 14.5829 9.14936 14.5822Z" fill="url(#paint0_radial_1_1869)"/>
</g>
<defs>
<radialGradient id="paint0_radial_1_1869" cx="0" cy="0" r="1" gradientUnits="userSpaceOnUse" gradientTransform="translate(-0.869063 12.7096) rotate(90) scale(26.1143 30.1535)">
<stop stop-color="#20C6B7"/>
<stop offset="1" stop-color="#4D9ABF"/>
</radialGradient>
<clipPath id="clip0_1_1869">
<rect width="100" height="26.555" fill="white"/>
</clipPath>
</defs>
</svg>

<svg xmlns="http://www.w3.org/2000/svg" width="237.037" height="64" fill="none" viewBox="0 0 100 27"><g clip-path="url(#a)"><path fill="#0E1E25" fill-rule="evenodd" d="M36.315 8.29 36.4 9.79c.957-1.16 2.213-1.739 3.768-1.739 2.694 0 4.065 1.547 4.113 4.64v8.569h-2.905v-8.402c0-.823-.177-1.432-.532-1.828-.355-.395-.935-.593-1.74-.593-1.172 0-2.046.532-2.619 1.594v9.229h-2.906V8.29h2.739-.002ZM52.94 21.5c-1.842 0-3.335-.581-4.478-1.744-1.145-1.162-1.717-2.71-1.717-4.644v-.36c0-1.294.25-2.45.748-3.47.497-1.018 1.198-1.811 2.099-2.38.9-.566 1.905-.85 3.014-.85 1.76 0 3.123.564 4.083 1.69.961 1.127 1.441 2.72 1.441 4.783v1.174h-8.455c.088 1.07.444 1.918 1.07 2.54.626.624 1.414.936 2.362.936 1.331 0 2.416-.54 3.253-1.618l1.566 1.498a5.24 5.24 0 0 1-2.074 1.804c-.865.427-1.836.64-2.912.64Zm-.347-11.11c-.798 0-1.44.28-1.93.839-.492.559-.804 1.338-.94 2.337h5.537v-.216c-.064-.975-.323-1.712-.777-2.211-.455-.5-1.084-.749-1.89-.749Zm11.432-5.25v3.152h2.285v2.157h-2.285v7.24c0 .494.099.852.293 1.072.196.22.545.329 1.047.329a4.467 4.467 0 0 0 1.016-.12v2.253a7.124 7.124 0 0 1-1.913.276c-2.232 0-3.348-1.234-3.348-3.703v-7.347h-2.13V8.29h2.128V5.138h2.906l.001.001Zm7.594 16.12h-2.906V2.85h2.906v18.41Zm6.255 0h-2.906V8.291h2.906V21.26ZM74.787 4.923c0-.447.141-.818.424-1.114.284-.295.689-.443 1.214-.443.527 0 .933.148 1.22.443.287.296.43.667.43 1.115 0 .439-.143.804-.43 1.096-.287.292-.693.438-1.22.438-.525 0-.93-.146-1.213-.438-.284-.291-.425-.657-.425-1.096v-.001Zm7.272 16.336V10.448h-1.974V8.29h1.974V7.104c0-1.439.398-2.549 1.195-3.332.797-.783 1.913-1.174 3.348-1.174.51 0 1.053.071 1.627.215l-.072 2.278c-.366-.068-.739-.1-1.112-.096-1.388 0-2.081.715-2.081 2.145v1.15h2.63v2.158h-2.63v10.81h-2.905v.001Zm12.185-4.17 2.63-8.798h3.098L94.83 23.225c-.79 2.181-2.13 3.272-4.019 3.272a5.2 5.2 0 0 1-1.4-.216v-2.254l.551.037c.733 0 1.286-.134 1.656-.402.37-.267.664-.717.88-1.348l.418-1.115-4.545-12.908h3.133l2.739 8.797Z" clip-rule="evenodd"/><path fill="url(#b)" d="m18.936 9.08-.01-.005a.039.039 0 0 1-.015-.009.075.075 0 0 1-.02-.063l.528-3.222 2.472 2.472-2.571 1.093a.056.056 0 0 1-.023.005h-.01a.07.07 0 0 1-.014-.012 1.17 1.17 0 0 0-.337-.26Zm3.585-.197 2.643 2.643c.55.55.824.823.924 1.141.015.047.028.094.037.143l-6.316-2.675-.01-.004c-.026-.01-.055-.022-.055-.048 0-.026.03-.038.055-.049l.008-.003 2.714-1.148Zm3.496 4.775c-.136.256-.402.522-.852.973l-2.98 2.979-3.854-.803-.02-.004c-.034-.006-.07-.012-.07-.042a1.164 1.164 0 0 0-.447-.814c-.016-.015-.012-.04-.007-.063l.001-.009.725-4.45.003-.015c.004-.034.01-.073.04-.073a1.178 1.178 0 0 0 .792-.454c.006-.006.01-.014.018-.018.022-.01.048 0 .07.01l6.58 2.783h.002ZM21.5 18.295l-4.9 4.9.838-5.155.002-.007a.09.09 0 0 1 .004-.02c.007-.016.024-.023.042-.03l.008-.003c.183-.079.346-.2.474-.353.016-.019.036-.037.061-.04a.06.06 0 0 1 .02 0l3.45.708Zm-5.937 5.936-.553.553-6.106-8.824a.245.245 0 0 0-.007-.01c-.01-.013-.02-.026-.018-.041 0-.01.008-.02.015-.029l.007-.009c.019-.027.034-.054.051-.083l.014-.024.002-.002c.01-.017.018-.032.035-.041.014-.007.034-.004.05 0l6.765 1.394c.019.003.036.01.052.023.008.008.01.018.013.029a1.198 1.198 0 0 0 .7.801c.02.01.011.03.003.053a.154.154 0 0 0-.01.031c-.086.518-.817 4.976-1.013 6.18Zm-1.154 1.153c-.407.403-.647.617-.919.703a1.364 1.364 0 0 1-.822 0c-.318-.101-.593-.375-1.141-.925L5.394 19.03l1.602-2.483a.103.103 0 0 1 .027-.032c.017-.013.042-.007.062 0 .368.11.763.09 1.117-.057.019-.007.037-.012.051.001a.129.129 0 0 1 .02.022l6.136 8.904ZM4.803 18.44l-1.407-1.406 2.778-1.185a.056.056 0 0 1 .023-.005c.023 0 .037.023.049.044.028.043.057.085.088.126l.01.01c.008.012.002.024-.006.035l-1.534 2.381h-.001Zm-2.03-2.029-1.78-1.78c-.302-.302-.521-.522-.674-.71l5.411 1.122a.473.473 0 0 0 .02.003c.034.006.071.012.071.043 0 .034-.04.05-.074.063l-.016.007-2.957 1.252ZM.009 13.005c.006-.115.027-.229.061-.338.101-.318.375-.592.925-1.141L3.27 9.248c1.049 1.522 2.1 3.042 3.155 4.56.018.024.039.052.018.072-.1.11-.2.23-.27.36a.109.109 0 0 1-.034.042c-.009.006-.018.004-.029.002l-6.103-1.28ZM3.88 8.639l3.061-3.062c.288.126 1.337.568 2.273.964.709.3 1.355.573 1.559.661.02.008.039.017.047.037.006.012.003.028 0 .04a1.366 1.366 0 0 0 .357 1.247c.02.02 0 .05-.018.075l-.01.015-3.109 4.815a.095.095 0 0 1-.029.034c-.016.01-.04.006-.059.001a1.553 1.553 0 0 0-.37-.05c-.112 0-.233.02-.356.043-.014.002-.027.004-.037-.004a.144.144 0 0 1-.031-.035L3.88 8.64h.001Zm3.68-3.68L11.528.993c.548-.549.823-.823 1.14-.924.269-.084.556-.084.823 0 .318.1.593.375 1.142.924l.86.86-2.82 4.366a.106.106 0 0 1-.029.032c-.017.012-.04.007-.06 0a1.43 1.43 0 0 0-1.31.253c-.019.019-.046.008-.07-.002-.367-.16-3.231-1.37-3.641-1.545Zm8.529-2.507 2.603 2.603-.627 3.885v.01a.092.092 0 0 1-.006.026c-.006.014-.02.017-.034.02a1.252 1.252 0 0 0-.387.198c-.008.009-.015.016-.027.017a.078.078 0 0 1-.03-.004L13.615 7.52l-.007-.003c-.026-.01-.056-.023-.056-.049a1.498 1.498 0 0 0-.211-.623c-.02-.032-.04-.064-.024-.097l2.773-4.297ZM13.409 8.32l3.719 1.575c.02.01.043.018.051.04a.073.073 0 0 1 0 .038.925.925 0 0 0-.02.18v.104c0 .026-.027.037-.051.047l-.008.002c-.589.252-8.271 3.528-8.283 3.528-.011 0-.024 0-.035-.012-.02-.02 0-.05.018-.075a.379.379 0 0 0 .01-.014l3.056-4.731.005-.009c.018-.028.039-.06.071-.06l.031.004c.07.01.131.019.193.019.464 0 .893-.226 1.152-.612a.107.107 0 0 1 .024-.027c.018-.014.045-.007.066.003Zm-4.26 6.262 8.374-3.57s.012 0 .024.011c.046.046.084.076.122.105l.018.012c.017.01.034.02.036.038 0 .007 0 .01-.002.017l-.717 4.406-.003.018c-.004.034-.01.072-.041.072a1.18 1.18 0 0 0-.936.578l-.004.006c-.01.015-.018.03-.034.038-.014.007-.033.005-.048.001l-6.677-1.377c-.007-.002-.104-.354-.112-.355Z"/></g><defs><radialGradient id="b" cx="0" cy="0" r="1" gradientTransform="matrix(0 26.1143 -30.1535 0 -.87 12.71)" gradientUnits="userSpaceOnUse"><stop stop-color="#20C6B7"/><stop offset="1" stop-color="#4D9ABF"/></radialGradient><clipPath id="a"><path fill="#fff" d="M0 0h100v26.555H0z"/></clipPath></defs></svg>
